X: 70
T: No_62_Song_Used_in_Treatment_of_Sick_(k).krn
N: Derived from No_62_Song_Used_in_Treatment_of_Sick_(k).krn
%%abc-version 2.0
%%abcx-abcm2ps-target-version 5.9.1 (29 Sep 2008)
%%abc-creator hum2abc beta
%%abcx-conversion-date 2019/03/15 08:36:49
%%humdrum-veritas 777258843
%%humdrum-veritas-data 633661832
%%linebreak <none>
%%barnumbers 0
L: 1/8
M: 2/4
K: Db clef=treble
[K:clef=treble][M:2/4]E4 | 
F4- | 
FEE2 | 
F3E ||  
[M:3/4]FD B,B, B,B, ||  
[M:2/4]EE ED | 
ED B,B, | 
B,4 | 
E/D3/ DB, | 
DB, B,B, | 
B,B,B,2 | 
B,4 ]|:  
FF FF | 
F4 ||  
[M:3/4]BF FFE2 ||  
[M:2/4]B3F | 
!fermata!B2EE/D/ ||  
[M:3/4]ED B,B,B,2 ||  
[M:2/4]B,4 | 
[M:3/4]DB, B,B,B,2 [I:setbarnb 21]| 
D4DB, | 
B,B, B,B,B,2 ||  
[M:2/4]DB, B,B, | 
B,B,B,2 | 
B,4 :|]  



